X: 35588
T: S'iomadh Rud A Chunnaic Mi
R: reel
M: 4/4
K: Dmajor
e|f2fe dBAB|dded B2A2|f2fe dBAB|dBAB d2d:|
A|ddef afef|afef edBA|ddef afef|edBA d2dA|
ddef afef|ffef afef|ddef afef|edBA d2d||

